X:1
T:Spring The Summer Long
R:strathspey
M:4/4
L:1/8
K:Dmaj
D3D E2F2|d3c BA3|A2F2 d2F2|E3D EF3|
D3D E2F2|d3e f3e|dF3 E3D| [1 E8:| [2 D8||
d4 d3c|B3A Bd3|A2F2 d2A2|B3E FE3|
d4 d3c|B2A2 d3e|f3e dc3|d8|
d4 d3c|B3A Be3|dB3 A2F2|B3E FE3|
D3D E2F2|d3e f3e|dF3 E3D|D8 |] 
